X:1
T:Title
%%score { ( 1 3 ) | ( 2 4 ) }
L:1/8
M:4/4
K:E
V:1 treble nm="Grand Piano"
V:3 treble 
V:2 bass 
V:4 bass 
V:1
 z4 z2[Q:1/4=100] [GB]>[FA] | G>G G>[FA] [GB]>[GB] [FA]>[EG] | %2
 [CF]>[CF] [CA]>[CA] [Ec]>[Ec] [Ec]>[Ec] | [DB]>[DB] [DA]>[DA] [DF]>[DF] [DB]>[DB] |[M:3/4] [EG]6 | %5
[M:1/4] [GB]>[FA] |[M:4/4] G>G G>[FA] [GB]>[GB] [FA]>[EG] | %7
 [CF]>[CF] [CA]>[CA] [Ec]>[Ec] [Ec]>[Ec] | [DB]>[DB] [DA]>[DA] [DF]>[DF] [DB]>D |[M:3/4] E6 | %10
[M:1/4] B>A |[M:4/4] G6 z2 | [EGB]2 [DFA]4 A>G | F6 z2 | [EAc]2 [EGB]4 B>A | G6 z2 | [Ac]6 z2 | %17
 B3 E [EG]2 [DF]2 | %18
[M:3/4] E6[Q:1/4=99][Q:1/4=97][Q:1/4=96][Q:1/4=94][Q:1/4=93][Q:1/4=91][Q:1/4=90][Q:1/4=88][Q:1/4=87][Q:1/4=85][Q:1/4=84][Q:1/4=82][Q:1/4=81][Q:1/4=79][Q:1/4=78][Q:1/4=76] |] %19
V:2
 z4 z2 [E,B,]>[E,B,] | [E,B,E]>[E,B,E] [E,B,E]>[E,B,] [E,E]>[E,E] [E,B,]>[E,B,] | %2
 [A,,A,]>[A,,A,] [A,,E,]>[A,,E,] [A,,A,]>[A,,A,] [A,,A,]>[A,,A,] | %3
 [B,,F,]>[B,,F,] [B,,B,]>[B,,B,] [B,,B,]>[B,,B,] [B,,B,]>[B,,B,] |[M:3/4] [E,B,]6 | %5
[M:1/4] [E,B,]>[E,B,] |[M:4/4] [E,B,E]>[E,B,E] [E,B,E]>[E,B,] [E,E]>[E,E] [E,B,]>[E,B,] | %7
 [A,,A,]>[A,,A,] [A,,E,]>[A,,E,] [A,,A,]>[A,,A,] [A,,A,]>[A,,A,] | %8
 [B,,F,]>[B,,F,] [B,,B,]>[B,,B,] [B,,B,]>[B,,B,] [B,,F,]>[B,,A,B,] |[M:3/4] [E,G,B,]6 | %10
[M:1/4][K:treble] G>F |[M:4/4] E6[K:bass] z2 | B,,2 B,,4[K:treble] F>E | D6[K:bass] z2 | %14
 E,2 E,4[K:treble] G>F | E6[K:bass] z2 | A,2 A,>A, A,2[K:treble] [A,EA]>[A,EA] | %17
 [B,EG]3[K:bass] [B,,G,] [B,,B,]2 [B,,A,]2 |[M:3/4] [G,B,]2 z2 z2 |] %19
V:3
 x8 | x8 | x8 | x8 |[M:3/4] x6 |[M:1/4] x2 |[M:4/4] x8 | x8 | x8 |[M:3/4] x6 |[M:1/4] x2 | %11
[M:4/4] z2 B,>B, B,>[EGB] [EAc]>[EGB] | x8 | z2 B,>B, B,>[B,EG] [DFA]>[DFA] | x8 | %15
 z2 B,>B, B,>[EGB] [EGB]>[EGB] | E2 E>E E2 c>c | x8 |[M:3/4] z z/ B,/ C>C B,2 |] %19
V:4
 x8 | x8 | x8 | x8 |[M:3/4] x6 |[M:1/4] x2 |[M:4/4] x8 | x8 | x8 |[M:3/4] x6 | %10
[M:1/4][K:treble] x2 |[M:4/4] z2[K:bass] E,>E, E,>E, E,>E, | x6[K:treble] x2 | %13
 z2[K:bass] B,,>B,, B,,>B,, B,,>B,, | x6[K:treble] x2 | z2[K:bass] E,>E, E,>E, E,>E, | %16
 x6[K:treble] x2 | x3[K:bass] x5 |[M:3/4] E,->[E,-G,] [E,-A,]>[E,-A,] [E,G,]2 |] %19

